X: 15469
T: Glencoe Hall
R: jig
M: 6/8
K: Dmajor
A,|DED F2G|A3 A2B|Adf afd|e3 e2f|
gfg bag|fef afd|gfg cac|d3 d2:|
f|afd Adf|abg afd|afd Adf|ecA GFE|
afd Adf|abg afd|gfg cac|d3 d2||
f|afd Adf|abg afd|afd Adf|ecA GFE|
DFA DGB|FAd afd|gfg cac|d3 d2||

